X:1
T:The Gallant Weaver
M:4/4
L:1/4
K:G
 D/2| D DB,/2-C/2 D| E E D3/2 D/2| E/2F/2 G E G| c B A3/2| D/2| D3/2 D/2 D3/2 D/2|\
E/2-F/2G/2-E/2 D3/2 D/2| D G FG/2-A/2| B- A G3/2| A/2| Bc/2-B/2 AB/2-A/2|\
G/2-B/2A/2-G/2 G/2- F D/2|E/2-F/2 G D G| c B A3/2| D/2| D3/2 D/2 D3/2 D/2|\
E/2-F/2G/2-E/2 D3/2 D/4D/4| D G FG/2-A/2| B- A G3/2||

